X:325
T: WOLT IHR HOERN EIN NEWS GEDICHT
N: E0938
O: Europa, Mitteleuropa, Deutschland
R: Tanz - Lied, Reigen, geistlich; Spiel - Lied
M: 6/4
L: 1/4
K: F
 | F2FA2B | c2cc2
c | F2FA2B | c3c2
c | d2cc2B | A2AA2
A | G2GG2
G | ccAB | G2F2

@@@ Tune index: 4638
